**kern	**kern
*part1	*part1
*staff2	*staff1
*I"Piano	*
*clefF4	*clefG2
*k[]	*k[]
=1	=1
((4E [4B-X 4c#X	((4g [4b-X 4cc#X
8F)) 8B-] 8d	8f)) 8b-] 8dd
8r	8r
=	=
((4E [4B-X 4c#X	((4g [4b-X 4cc#X
8F)) 8B-] 8d	8f)) 8b-] 8dd
8r	8r
=	=
(((2E 2B-X 2c#X	(((2g 2b-X 2cc#X
=	=
4F))))) 4A 4d	4f))) 4a 4dd
4r	4r
=	=
8GG	8r
(8G'L 8d	(8f'L 8g
8G' 8c	8f' 8g
8G'J) 8Bn	8f'J) 8g
=	=
2c	2e 2g
=	=
8r	(8ccL 8ccc
8GL 8d 8f	8b 8bb
8G 8c 8f	8a 8aa
8GJ 8B 8f	8gJ) 8gg
=	=
*-	*-
!!!system-decoration: {(s1,s2)}
